X:1
T:Joye et santé
T:Claude Goudimel
T:Source : Livre II de 26 chansons nouvelles à 4 parties---Paris---N.du Chemin---1549. Editor : André Vierendeels (13/02/18) Notes : Original clefs : G2, C2, C3, C4 Original note values have been halved Editorial accidentals above the stave
T:Joye et santé
T:©
T:©
T:©
C:Claude Goudimel
Z:©
%%score [ 1 2 [ 3 4 ] ]
L:1/8
Q:1/4=120
M:2/2
K:F
V:1 treble nm="Soprano" snm="S"
V:2 treble nm="Alto" snm="A"
V:3 treble-8 nm="Tenor 1" snm="T 1"
V:4 treble-8 nm="Tenor 2" snm="T 2"
V:1
 z4 d2 de | f2 f2 e2 d2 | d3 c/B/ c2 d2 | z2 d2 deff | c2 c2 c4 | d4 GABc | d2 B2 A2 d2- | %7
w: Joye et san-|té, ma- da- moy-|sel- * * * le,|ioye et san- té ma|da- moy- sel-|le, de la bel- le|fil- le qu'a- vez|
 d2 c2 dAAA | c2 c2 B2 A2- | A2 G4 F2 | G4 d3 d | d2 d2 dd c2 | d2 d2 G2 GG | F2 B2 A2 G2 | %14
w: _ faict, de la bel- le|fil- le qu'a- vez|_ _ _|faict, l'on en|veit onc- que de si|bel- le, ioye et san-|té, ma- da- moy-|
 F2 G2 z2 d2 | d2 e2 f3 e | d2 c2 d4- | d2 c2 B4 | A4 d2 dd | c2 B2 B2 A2 | B8 | d2 de f2 f2 | %22
w: sel- le, blon-|de l'a- vez en|beaul- té tel-||le, que le sei-|gneur Dieu la par-|faict,|ioye et san- té, ma|
 e2 d2 d3 c/B/ | c2 d2 z2 d2 | deff c2 c2 | c4 d4 | GABc d2 B2 | A2 d4 c2 | dA/A/AA c2 c2 | %29
w: da- moy- sel- * *|* le, ioye|et san- té ma- da- moy|sel- le,|de la bel- le fil- le|qu'a- * vez|faict, de la bel- le fil- le|
 B2 A4 G2- |"^#" G2 F2 GG/G/GG | B2 A4 G2- |[M:2/4]"^#" G2 F2 |[M:2/2] G8 |] %34
w: qu'a- * *|* vez faict, de la bel- le|fil- le qu'a-|* vez|faict.|
V:2
 G2 GA B2 B2 | A2 F2 G4 | A4 A2 AA | B2 B2 F3 G | A4 G4 | GFGA B2 G2 | D3 E F2 G2 | A4 F/F/FFF | %8
w: Joye et san- té, ma-|da- moy- sel-|le, ioye et san-|té ma- da- moy-|sel- le,|de la bel- le fil- le|qu'a- * * vez|faict, de la bel- le fil-|
 E2 E2 F4 | D2 _E2 D4 | D4 B3 B | B2 B2 AF G2 | A2 B2 D2 DD | D2 F2 F2 D2 | D2 D2 F4 | %15
w: le qu'a- *|* * vez|faict, l'on en|veit onc- ques de si|bel- le, ioye et san-|té, ma- da- moy-|sel- le, blon-|
 B2 G2 F2 A2 | A2 A2 A4 | D2 F2 G4 | F4 F2 FF | F2 D2 F2 F2 | D4 G2 GA | B2 B2 A2 F2 | G4 A4 | %23
w: de l'a- vez en|beaul- té tel-||le que le sei-|gneur Dieu la par-|faict, ioye et san-|té, ma- da- moy-|sel- le,|
 A2 AA B2 B2 | F3 G A4 | G4 GFGA | B2 G2 D3 E | F2 G2 A4 | F/F/FFF E2 E2 | F4 D2 _E2 | D4 D/D/DDD | %31
w: ioye et san- té ma-|da- moy sel-|le, de la bel- le|fil- le qu'a- *|* vez faict,|de la bel- le fil- le qu'a-|* * vez|faict, de la bel- le fil-|
 F2 F2 D2 E2 |[M:2/4] D4 |[M:2/2] D8 |] %34
w: le qu'a- * *|vez|faict.|
V:3
 z4 G2 GG | d2 d2 Bcde | f2 f2 e2 d2 | z4 d2 de | f3 f e2 c2 | B2 G2 g2 g2 | g2 g2 f2 d2 | %7
w: Joye et san-|té, ma- da- * * *|* moy sel- le,|ioye et san-|té ma- da- moy|sel- le, de la|bel- le fil- le|
 e2 e2 d4 | AAAA d3 c | B2 c2 A4 | G4 G3 G | G2 G2 dd e2 | d2 G2 B2 BB | A2 d2 c2 B2 | A2 G2 d4 | %15
w: qu'a- vez faict,|de la bel- le fil- le|qu'a- * vez|faict, l'on en|veit onc- ques de si|bel- le, ioye et san-|té, ma- da- moy-|sel- le, blon-|
 B2 c2 d2 f2 | f2 e2 f4 | f4 d3 d | d2 d2 d2 BB | A2 B2 c2 c2 |"^#" B4 G4 | G2 G2 d2 d2 | %22
w: de l'a- vez en|beaul- té tel-|le: en beaul-|té tel- le que le|sei- gneur Dieu la|par- faict,|ioye et san- té|
 Bcde f2 f2 | e2 d2 z4 | d2 de f3 f | e2 c2 B2 G2 | g2 g2 g2 g2 | f2 d2 e2 e2 | d4 AAAA | %29
w: ma- * * * da- moy-|sel- le,|ioye et san- té ma-|da- moy- sel- le,|de la bel- le|fil- le qu'a- vez|faict, de la bel- le|
 d3 c B2 c2 | A4 G2 B/B/B/c/ | d3 c B2 c2 |[M:2/4] A4 |[M:2/2] G8 |] %34
w: fil- le qu'a- *|vez faict, de la bel- le|fil- le qu'a- *|vez|faict.|
V:4
 z8 | D2 DD G2 G2 | F2 D2 A2 D2 | G2 GA B3 B | A2 F2 c4 | G4 z4 | GABc d2 B2 | A2 A2 D4 | z4 DEFF | %9
w: |Joye et san- té ma-|da- moy- sel- le,|ioye et santé _ ma-|da- moy- sel-|le,|de la bel- le fil- le|qu'a- vez faict,|de le bel- le|
 G2 C2 D2 D2 | G4 z4 | z8 | z4 G2 GG | D2 B,2 F2 G2 | D2 G2 z4 | z4 z2 d2 | d2 A2 d3 c | B2 A2 G4 | %18
w: fil- le qu'a- vez|faict,||ioye et san-|té, ma- da- moy-|sel- le,|blon-|de l'a- vez en|beaul- té tel-|
 D4 B,2 B,B, | F2 G2 F2 F2 | B,4 z4 | z4 D2 DD | G2 G2 F2 D2 | A2 D2 G2 GA | B3 B A2 F2 | c4 G4 | %26
w: le que le sei-|gneur Dieu la par-|faict,|ioye et san-|té ma- da- moy-|sel- le, ioye et san-|té ma- da- moy-|sel- le,|
 z4 GABc | d2 B2 A2 A2 | D4 z4 | DEFF G2 C2 | D2 D2 G4 | DEFF G2 C2 |[M:2/4] D2 D2 |[M:2/2] G8 |] %34
w: de la bel- le|fil- le qu'a- vez|faict,|de la bel- le fil- le|qu'a- vez faict,|de la bel- le fil- le|qu'a- vez|faict.|

